X: 12
T: Branle 2
R: branle
M: 2/4
L: 1/8
K: Amin
"Am"AcAc| "Em"BA G2 | "Am"AAGA | "G"BcB2| "Am"AcAc| "Em"BA G2 | "Am"AAGA | "Em"Bc "Am"A2|
"Am" c2 d2 | "Em"Bc "Am"A2 | ccdd| "Em"Bc "Am"A2 | c2 d2 |"Em"Bc A2 |"F"ccdd| "Em"Bc "Am"A2 :|  

